X: 63
T:Drunken Landlady Variations
R:Reel
N:Barneys gesammelten Variationen
D:Bothy band
Z:Barney
M:C
L:1/8
K: B Minor
A2|| BE ~E2 BAFA| BE ~E2 BAFB| ABAF D2 ED| FAAd BAFA|
BE ~E2 BAFA|BE ~E2 BAFB| A2 Bc dfec| dBAF E2 FA| 
BE ~E2 BAFA|BE ~E2 [E3B3] E| D3 E FDEF| GEFG AFGA|
BE ~E2 BAFA|BE ~E2 BAFB| A2 Bc dfec| dBAF E2 FA||
|Beed e2 de| ~f2 df efdB| ABAF D2 ED| FAAd BAFA| 
Beed e2 de| ~f2 df efdBA2 Bc dfec| dBAF E2 FA|
Beed e2 de| ~f2 df efdB| {c}d3 B2 (3AAA| {c}d3 B2 (3AAA|
Beed e2 de| ~f2 df efdB| A2 Bc dfec|dB AF E z2 ||
BE ~E2 BAFA| BE ~E2 BAFB| ABFA D2 ED| dDcD BDAD|
BE ~E2 BAFA|BE ~E2 BAFB| A2 Bc dfec| dBAF Edcd|
BE ~E2 [E2B2] z A|BE ~E2 [E2B2] z B|ABAF D2 FD| d2 cd Bc A2|
BE ~E2 BAFA|BE ~E2 BAFB| A2 Bc dfec| dBAF EFGA||
Beed (3efe de| ~f2 df efdB| ABAF D2 ED| dece BeAe|
 Beed e2 de| ~f2 df efdB| A2 Bc dfec| dBAF E2 FA|
Beed (3efe de| ~f2 df efdB| {g}a4 f2 d2| e3 z {c}c2 A2|
Beed e2 de| ~f2 df efdB| A2 Bc dfec| dBAF [E4B4]||
BE ~E2 BAFA|BE ~E2 BAFB| AFFB FFAF|EFFA FFEF|
BE ~E2 BAFA|BE ~E2 BAFB| A2 Bc dfec| dBAF EFGA|
BE ~E2 [E2B2] A|BE ~E2 B3 B| ABAF D2 FD| d cd BdAd|
BE ~E2 BAFA| BE ~E2 BAFB| A2 Bc dfec|dBAF EFGA||
Beed e2 de| ~f2 df efdB| ABAF D2 ED|FAAd BAFA|
Beed e2 de|~f2 df efdB| A2 Bc dfec| dBAF E2 FA|
Beed e2 de| ~f2 df efdB| {g}a4 f2 d2|e3 z {c}c2 A2|
Beed e2 de| ~f2 df efdB| A2 Bc dfec| dBAF [E4B4] ||
